X:1
T:Celia Connallon
T:Celia Connallon
T:Thomas Connallon, 1650
C:Thomas Connallon, 1650
L:1/8
Q:1/4=120
M:2/4
K:Cmin
V:1 treble 
V:1
"^Rather Slow but Spirited"{GA} (G/F/) | (.G.c) .c(c/4d/4e/4d/4) |{=B} c2{cd} .c(_B/G/) | %3
{=A} B2 (F/D/)(F/G/) |{=A} B2 (c/B/){GA} (G/F/) | (.G.c .c)(c/4d/4e/4d/4) |{=B} c2{cd} .c(_B/G/) | %7
{=A} B2 (TD>C) | (B,G,) (B,C/4D/4).E z | .E(F/G/) .B(G/4F/4)E/ |{^C} D2 (.G/.F/.E/.D/) | %11
 (.C>.D).C.G, | (.C.D) [G,CE]T[CF] | !fermata![=B,DB] (c/d/) (ed) |{=B} c2{cd} .c(_B/G/) | %15
{=A} B2{GA} .G2 (F/D/) | (F/E/)(D/C/) .C || C |{=B,} C4- | C2 z || %20

